X:1
T:[ID 7-155b]
T:[ID 7-155b]
T:Bezeichnung standardisiert: March Marsch
T:Urheber unbekannt Datum in der hier transkribierten schriftlichen Quelle: 1776 - 1791
C:Urheber unbekannt
C:Datum in der hier transkribierten schriftlichen Quelle: 1776 - 1791
L:1/8
M:none
K:G
V:1 treble 
V:1
 (3DEF | G2 B2 A/F/D DE | A2 c2 B/A/G G2 | GB d2 (3B/A/G/ e2 (3d/c/B/ | AG FG A2 :: (3DEF | %6
 G2 B2 A/F/D z D | A2 c2 B/A/G G2 | d>BA/G/ e>dc/B/ | AGFG A2 :| %10

